X:1
T:James Duff M.P.
C:William Marshall
R:Reel
Q: 232
K:F
M:4/4
L:1/8
|:fc c2 dB B2|ba gf eg c2|fc c2 dB Bd|cB AG F2 F2|
fc c2 dB B2|ba gf eg c2|fc c2 dB Bd|cB AG F2 F2|
Ff ef dB Bd|Gg ^fg ec ce|Ff ef dB Bd|cB AG F2 F2|
Ff ef dB Bd|Gg ^fg ec ce|Ff ef dB Bd|cB AG F2 F2:|
